24x24/status/uget-tray-default.svg

<svg width="24" height="24" version="1.1" xmlns="http://www.w3.org/2000/svg">
 <defs>
  <style id="current-color-scheme" type="text/css"/>
 </defs>
 <path d="m10.625 5s-2.327 0.017-2.625 2.625v6.375h-2v-6h-1v5.75c0 1.75 1.75 1.25 1.75 1.25h1.25v1.375c0 2.625 2.625 2.625 2.625 2.625h4.75c2.625 0 2.625-2.625 2.625-2.625v-5.375h-3v2h1l-3 4-3-4h1v-5h4v1h3v-1.375s0-2.625-2.625-2.625z" color="#ffffff" fill="currentColor"/>
</svg>

<svg height="24" width="24" xmlns="http://www.w3.org/2000/svg">
    <path d="M10.625 5S8.298 5.017 8 7.625V14H6V8H5v5.75C5 15.5 6.75 15 6.75 15H8v1.375C8 19 10.625 19 10.625 19h4.75C18 19 18 16.375 18 16.375V11h-3v2h1l-3 4-3-4h1V8h4v1h3V7.625S18 5 15.375 5z" fill="#f4f4f7"/>
</svg>
